svgs/regular/books-medical.svg

<svg xmlns="http://www.w3.org/2000/svg" viewBox="0 0 576 512"><!--! Font Awesome Pro 6.6.0 by @fontawesome - https://fontawesome.com License - https://fontawesome.com/license (Commercial License) Copyright 2024 Fonticons, Inc. --><path d="M112 416l0 48 64 0 0-48-64 0zm88 89.6c-7.1 4.1-15.3 6.4-24 6.4l-64 0c-26.5 0-48-21.5-48-48l0-48 0-24 0-8 112 0 0-16 0-48 48 0 0 48 64 0 0-224-64 0 0 48-48 0 0-48 0-16L64 128l0-8 0-24 0-48C64 21.5 85.5 0 112 0l64 0c8.7 0 16.9 2.3 24 6.4C207.1 2.3 215.3 0 224 0l64 0c20.6 0 38.1 12.9 45 31.1c5.6-6.1 12.9-10.7 21.4-13L413.9 1.6c24.7-6.8 50.1 8.3 56.7 33.8l18 69.2 6 23.2 61.8 238.3 6 23.2 11.9 46c6.6 25.5-8 51.7-32.7 58.5l-59.6 16.5c-24.7 6.8-50.1-8.3-56.7-33.8l-18-69.2-6-23.2L339.6 145.9 336 132.2l0 11.8 0 224 0 24 0 24 0 48c0 26.5-21.5 48-48 48l-64 0c-8.7 0-16.9-2.3-24-6.4zM224 464l64 0 0-48-64 0 0 48zM176 48l-64 0 0 48 64 0 0-48zm48 48l64 0 0-48-64 0 0 48zM504.1 355.7l-55.8-215-56.5 15.6 55.8 215 56.5-15.6zm-44.4 62.1l11.9 45.7L528 447.9c0-.1 0-.2 0-.3l0-.1-11.7-45.2-56.5 15.6zm-79.9-308l56.5-15.6L424.4 48.5 368 64.1c0 .1 0 .2 0 .4l11.7 45.2zM64 176c0-8.8 7.2-16 16-16l32 0c8.8 0 16 7.2 16 16l0 48 48 0c8.8 0 16 7.2 16 16l0 32c0 8.8-7.2 16-16 16l-48 0 0 48c0 8.8-7.2 16-16 16l-32 0c-8.8 0-16-7.2-16-16l0-48-48 0c-8.8 0-16-7.2-16-16l0-32c0-8.8 7.2-16 16-16l48 0 0-48z"/></svg>

<svg xmlns="http://www.w3.org/2000/svg" viewBox="0 0 576 512"><!--! Font Awesome Pro 6.4.2 by @fontawesome - https://fontawesome.com License - https://fontawesome.com/license (Commercial License) Copyright 2023 Fonticons, Inc. --><path d="M112 416v48h64V416H112zm88 89.6c-7.1 4.1-15.3 6.4-24 6.4H112c-26.5 0-48-21.5-48-48V416 392v-8H176V368 320h48v48h64V144H224v48H176V144 128H64v-8V96 48C64 21.5 85.5 0 112 0h64c8.7 0 16.9 2.3 24 6.4C207.1 2.3 215.3 0 224 0h64c20.6 0 38.1 12.9 45 31.1c5.6-6.1 12.9-10.7 21.4-13L413.9 1.6c24.7-6.8 50.1 8.3 56.7 33.8l18 69.2 6 23.2 61.8 238.3 6 23.2 11.9 46c6.6 25.5-8 51.7-32.7 58.5l-59.6 16.5c-24.7 6.8-50.1-8.3-56.7-33.8l-18-69.2-6-23.2L339.6 145.9 336 132.2V144 368v24 24 48c0 26.5-21.5 48-48 48H224c-8.7 0-16.9-2.3-24-6.4zM224 464h64V416H224v48zM176 48H112V96h64V48zm48 48h64V48H224V96zM504.1 355.7l-55.8-215-56.5 15.6 55.8 215 56.5-15.6zm-44.4 62.1l11.9 45.7L528 447.9c0-.1 0-.2 0-.3l0-.1-11.7-45.2-56.5 15.6zm-79.9-308l56.5-15.6L424.4 48.5 368 64.1c0 .1 0 .2 0 .4l11.7 45.2zM64 176c0-8.8 7.2-16 16-16h32c8.8 0 16 7.2 16 16v48h48c8.8 0 16 7.2 16 16v32c0 8.8-7.2 16-16 16H128v48c0 8.8-7.2 16-16 16H80c-8.8 0-16-7.2-16-16V288H16c-8.8 0-16-7.2-16-16V240c0-8.8 7.2-16 16-16H64V176z"/></svg>
